world_stage/static/flags/rect/esp-pv.svg

<svg height="560" viewBox="0 0 42 28" width="840" xmlns="http://www.w3.org/2000/svg"><path d="m0 0v28h42v-28z" fill="#d52b1e" stroke-width=".916515"/><g stroke-width="4.3"><path d="m0 0 42 28m0-28-42 28" stroke="#009b48"/><path d="m21 0v28m-21-14h42" stroke="#fff"/></g></svg>

<?xml version="1.0" encoding="UTF-8" standalone="no"?>
<svg
   viewBox="0 0 42 28"
   width="840"
   height="560"
   version="1.1"
   id="svg3"
   sodipodi:docname="Flag_of_the_Basque_Country.svg"
   inkscape:version="1.4 (e7c3feb1, 2024-10-09)"
   xmlns:inkscape="http://www.inkscape.org/namespaces/inkscape"
   xmlns:sodipodi="http://sodipodi.sourceforge.net/DTD/sodipodi-0.dtd"
   xmlns="http://www.w3.org/2000/svg"
   xmlns:svg="http://www.w3.org/2000/svg">
  <defs
     id="defs3" />
  <sodipodi:namedview
     id="namedview3"
     pagecolor="#ffffff"
     bordercolor="#000000"
     borderopacity="0.25"
     inkscape:showpageshadow="2"
     inkscape:pageopacity="0.0"
     inkscape:pagecheckerboard="0"
     inkscape:deskcolor="#d1d1d1"
     inkscape:zoom="0.76510907"
     inkscape:cx="414.97352"
     inkscape:cy="279.04518"
     inkscape:window-width="1512"
     inkscape:window-height="894"
     inkscape:window-x="0"
     inkscape:window-y="38"
     inkscape:window-maximized="0"
     inkscape:current-layer="svg3" />
  <path
     d="M 0,0 V 28 H 42 V 0 Z"
     fill="#d52b1e"
     id="path1"
     style="stroke-width:0.916515" />
  <path
     d="M 0,0 42,28 M 42,0 0,28"
     stroke="#009b48"
     stroke-width="4.3"
     id="path2"
     sodipodi:nodetypes="cccc" />
  <path
     d="M 21,0 V 28 M 0,14 h 42"
     stroke="#ffffff"
     stroke-width="4.3"
     id="path3"
     sodipodi:nodetypes="cccc" />
</svg>
